packages/icons/svgs/solid/Source=shower.svg

<svg width="12" height="12" viewBox="0 0 12 12" fill="none" xmlns="http://www.w3.org/2000/svg">
<g clip-path="url(#clip0_847_684)">
<path d="M6 9.75C5.55 9.75 5.25 10.05 5.25 10.5V11.25C5.25 11.7 5.55 12 6 12C6.45 12 6.75 11.7 6.75 11.25V10.5C6.75 10.05 6.45 9.75 6 9.75Z" fill="black"/>
<path d="M3 8.25C2.55 8.25 2.25 8.55 2.25 9V9.75C2.25 10.2 2.55 10.5 3 10.5C3.45 10.5 3.75 10.2 3.75 9.75V9C3.75 8.55 3.45 8.25 3 8.25Z" fill="black"/>
<path d="M9 8.25C8.55 8.25 8.25 8.55 8.25 9V9.75C8.25 10.2 8.55 10.5 9 10.5C9.45 10.5 9.75 10.2 9.75 9.75V9C9.75 8.55 9.45 8.25 9 8.25Z" fill="black"/>
<path d="M11.175 6C10.875 3.675 9.075 1.875 6.75 1.575V0H5.25V1.575C2.925 1.875 1.125 3.675 0.825 6C0.3 6 0 6.375 0 6.75C0 7.2 0.3 7.5 0.75 7.5H11.25C11.7 7.5 12 7.2 12 6.75C12 6.375 11.7 6 11.175 6Z" fill="black"/>
</g>
<defs>
<clipPath id="clip0_847_684">
<rect width="12" height="12" fill="white"/>
</clipPath>
</defs>
</svg>

<svg xmlns="http://www.w3.org/2000/svg" width="12" height="12" viewBox="0 0 12 12"><g clip-path="url(#a)"><path d="M6 9.75c-.45 0-.75.3-.75.75v.75c0 .45.3.75.75.75s.75-.3.75-.75v-.75c0-.45-.3-.75-.75-.75Zm-3-1.5c-.45 0-.75.3-.75.75v.75c0 .45.3.75.75.75s.75-.3.75-.75V9c0-.45-.3-.75-.75-.75Zm6 0c-.45 0-.75.3-.75.75v.75c0 .45.3.75.75.75s.75-.3.75-.75V9c0-.45-.3-.75-.75-.75ZM11.175 6A5.095 5.095 0 0 0 6.75 1.575V0h-1.5v1.575A5.095 5.095 0 0 0 .825 6C.3 6 0 6.375 0 6.75c0 .45.3.75.75.75h10.5c.45 0 .75-.3.75-.75 0-.375-.3-.75-.825-.75Z"/></g><defs><clipPath id="a"><path fill="#fff" d="M0 0h12v12H0z"/></clipPath></defs></svg>
